src/icons/icons_set_04/041-lit.svg

<svg height="50" viewBox="0 0 50 50" width="50" xmlns="http://www.w3.org/2000/svg"><g transform="translate(8.995 19.495595)"><path d="m5.52500536.26565774h-2.61812322c-2.62062381 0-2.62062381 2.61812321-2.62062381 2.61812321v2.62062381h7.85937084v-2.62062381c0-2.61812321-2.62062381-2.61812321-2.62062381-2.61812321z"/><path d="m29.1031179.26565774h-15.7187417c-2.6181232 0-2.6181232 2.61812321-2.6181232 2.61812321v15.72124225h18.3368649c2.6206238 0 2.6206238-2.6206238 2.6206238-2.6206238v-13.10061845c0-2.61812321-2.6206238-2.61812321-2.6206238-2.61812321z"/></g><path d="m4 7c0-1.1045695.8954305-2 2-2s2 .8954305 2 2v36.125c0 1.1045695-.8954305 2-2 2s-2-.8954305-2-2z"/><path d="m42.25 20c0-1.1045695.8954305-2 2-2s2 .8954305 2 2v23.125c0 1.1045695-.8954305 2-2 2s-2-.8954305-2-2z"/><path d="m15.5 27c1.1045695 0 2 .8954305 2 2s-.8954305 2-2 2h-9.5c-1.1045695 0-2-.8954305-2-2s.8954305-2 2-2z"/><path d="m15.5 34.25c1.1045695 0 2 .8954305 2 2s-.8954305 2-2 2h-9.5c-1.1045695 0-2-.8954305-2-2s.8954305-2 2-2z"/></svg>

<?xml version="1.0" encoding="UTF-8"?>
<svg width="50px" height="50px" viewBox="0 0 50 50" version="1.1" xmlns="http://www.w3.org/2000/svg" xmlns:xlink="http://www.w3.org/1999/xlink">
    <!-- Generator: Sketch 52.4 (67378) - http://www.bohemiancoding.com/sketch -->
    <title>041-lit</title>
    <desc>Created with Sketch.</desc>
    <g id="041-lit" stroke="none" stroke-width="1" fill="none" fill-rule="evenodd">
        <g id="Group" transform="translate(8.995000, 19.495595)" fill="#000000" fill-rule="nonzero">
            <g id="000-lit">
                <g id="ICONSET-01">
                    <g id="000-lit">
                        <path d="M5.52500536,0.265657738 L2.90688214,0.265657738 C0.286258333,0.265657738 0.286258333,2.88378095 0.286258333,2.88378095 L0.286258333,5.50440476 L8.14562917,5.50440476 L8.14562917,2.88378095 C8.14562917,0.265657738 5.52500536,0.265657738 5.52500536,0.265657738 Z" id="Shape"></path>
                        <path d="M29.1031179,0.265657738 L13.3843762,0.265657738 C10.766253,0.265657738 10.766253,2.88378095 10.766253,2.88378095 L10.766253,18.6050232 L29.1031179,18.6050232 C31.7237417,18.6050232 31.7237417,15.9843994 31.7237417,15.9843994 L31.7237417,2.88378095 C31.7237417,0.265657738 29.1031179,0.265657738 29.1031179,0.265657738 Z" id="Shape-path"></path>
                    </g>
                </g>
            </g>
        </g>
        <path d="M4,7 C4,5.8954305 4.8954305,5 6,5 C7.1045695,5 8,5.8954305 8,7 L8,43.125 C8,44.2295695 7.1045695,45.125 6,45.125 C4.8954305,45.125 4,44.2295695 4,43.125 L4,7 Z" id="Path-6" fill="#000000" fill-rule="nonzero"></path>
        <path d="M42.25,20 C42.25,18.8954305 43.1454305,18 44.25,18 C45.3545695,18 46.25,18.8954305 46.25,20 L46.25,43.125 C46.25,44.2295695 45.3545695,45.125 44.25,45.125 C43.1454305,45.125 42.25,44.2295695 42.25,43.125 L42.25,20 Z" id="Path-6-Copy" fill="#000000" fill-rule="nonzero"></path>
        <path d="M15.5,27 C16.6045695,27 17.5,27.8954305 17.5,29 C17.5,30.1045695 16.6045695,31 15.5,31 L6,31 C4.8954305,31 4,30.1045695 4,29 C4,27.8954305 4.8954305,27 6,27 L15.5,27 Z" id="Path-7" fill="#000000" fill-rule="nonzero"></path>
        <path d="M15.5,34.25 C16.6045695,34.25 17.5,35.1454305 17.5,36.25 C17.5,37.3545695 16.6045695,38.25 15.5,38.25 L6,38.25 C4.8954305,38.25 4,37.3545695 4,36.25 C4,35.1454305 4.8954305,34.25 6,34.25 L15.5,34.25 Z" id="Path-7-Copy" fill="#000000" fill-rule="nonzero"></path>
    </g>
</svg>
